modules/hawcons-filled/icons/icon-73-documents.svg

<?xml version="1.0" encoding="UTF-8" standalone="no"?>
<svg width="32px" height="32px" viewBox="0 0 32 32" version="1.1" xmlns="http://www.w3.org/2000/svg" xmlns:xlink="http://www.w3.org/1999/xlink" xmlns:sketch="http://www.bohemiancoding.com/sketch/ns">
    <!-- Generator: Sketch 3.0.3 (7891) - http://www.bohemiancoding.com/sketch -->
    <title>icon 73 documents</title>
    <desc>Created with Sketch.</desc>
    <defs></defs>
    <g id="Page-1" stroke="none" stroke-width="1" fill="none" fill-rule="evenodd" sketch:type="MSPage">
        <g id="icon-73-documents" sketch:type="MSArtboardGroup" fill="#929292">
            <path d="M23,27 L27.0025781,27 C28.1057238,27 29,26.1090746 29,25.0025781 L29,8 L24.0059191,8 C22.8980806,8 22,7.11329365 22,6.00189865 L22,0 L12.0085302,0 C10.8992496,0 10,0.898338318 10,2.00732994 L10,4 L17.5,4 L24,11.6000061 L24,27 L23,27 L23,13 L18.0059191,13 C16.8980806,13 16,12.1132936 16,11.0018986 L16,5 L6.0085302,5 C4.8992496,5 4,5.89833832 4,7.00732994 L4,29.9926701 C4,31.1012878 4.89092539,32 5.99742191,32 L21.0025781,32 C22.1057238,32 23,31.1090746 23,30.0025781 L23,27 L23,27 L23,27 Z M23,0 L23,5.99707067 C23,6.55097324 23.4509752,7 23.990778,7 L29,7 L23,0 L23,0 Z M17,5 L17,10.9970707 C17,11.5509732 17.4509752,12 17.990778,12 L23,12 L17,5 L17,5 Z" id="documents" sketch:type="MSShapeGroup"></path>
        </g>
    </g>
</svg>

<svg width="32" height="32" xmlns="http://www.w3.org/2000/svg"><path d="M23 27h4.003C28.106 27 29 26.11 29 25.003V8h-4.994A1.997 1.997 0 0 1 22 6.002V0h-9.991C10.899 0 10 .898 10 2.007V4h7.5l6.5 7.6V27h-1V13h-4.994A1.997 1.997 0 0 1 16 11.002V5H6.009C4.899 5 4 5.898 4 7.007v22.986A2 2 0 0 0 5.997 32h15.006C22.106 32 23 31.11 23 30.003V27zm0-27v5.997c0 .554.451 1.003.99 1.003H29l-6-7zm-6 5v5.997c0 .554.451 1.003.99 1.003H23l-6-7z" fill="#929292" fill-rule="evenodd"/></svg>
